X:485
T: Es wollt ein Mdchen in der Frh' aufstehn (7-81), S. 129
N: P0755
O: Lothringen
S: MERKELBACH-PINCK, Angelika: Verklingende Weisen, Bd 5, Kassel 1962]
R: Verfhrung, Beischlaf]
M: 4/4
L: 1/8
K: F
C2 | F2F2EE2G | F2D2C3
F | E2G2c2cB | A6
FG | A2A2A2c2 | c2B2A3
c | cccee3d | d2c2A2
cc | c2B2D2E2 | F2G2A2
cc | c2B2D2E2 | F4z2

